flaticon/office/marker.svg

<svg xmlns="http://www.w3.org/2000/svg" width="32" height="32" viewBox="0 0 24 24">
    <path d="M 23.878906 4.484375 L 19.644531 0.289062 C 19.484375 0.128906 19.203125 0.128906 19.042969 0.289062 L 18.203125 1.125 C 18.042969 0.96875 17.804688 0.96875 17.644531 1.125 L 2.972656 15.835938 C 2.886719 15.921875 2.847656 16.03125 2.855469 16.140625 C 2.855469 16.144531 2.851562 16.152344 2.851562 16.15625 L 2.933594 16.878906 C 3.054688 18.277344 2.574219 19.636719 1.574219 20.632812 C 1.492188 20.714844 1.453125 20.792969 1.453125 20.914062 C 1.453125 21.023438 1.488281 21.101562 1.554688 21.171875 L 0.136719 22.59375 C 0.015625 22.671875 -0.0234375 22.832031 0.015625 22.953125 C 0.0546875 23.074219 0.175781 23.191406 0.292969 23.234375 L 1.972656 23.792969 C 2.015625 23.832031 2.054688 23.832031 2.09375 23.832031 C 2.214844 23.832031 2.332031 23.792969 2.375 23.710938 L 3.234375 22.851562 L 3.253906 22.875 C 3.332031 22.953125 3.414062 22.992188 3.53125 22.992188 C 3.613281 22.992188 3.734375 22.953125 3.8125 22.875 L 3.972656 22.671875 C 4.890625 21.753906 6.050781 21.273438 7.332031 21.273438 L 7.875 21.273438 C 7.925781 21.300781 7.980469 21.3125 8.050781 21.3125 C 8.167969 21.3125 8.25 21.234375 8.328125 21.195312 L 23 6.484375 C 23.160156 6.324219 23.160156 6.082031 23 5.921875 L 23.878906 5.042969 C 24.039062 4.882812 24.039062 4.644531 23.878906 4.484375 Z M 17.921875 1.964844 L 22.179688 6.183594 L 8.050781 20.316406 L 3.8125 16.078125 Z M 2.691406 22.3125 L 2.015625 22.992188 L 1.175781 22.714844 L 2.132812 21.753906 Z M 3.53125 22.035156 L 2.375 20.875 C 3.292969 19.835938 3.773438 18.515625 3.734375 17.15625 L 7.089844 20.515625 C 5.769531 20.554688 4.492188 21.113281 3.53125 22.035156 Z M 22.480469 5.363281 L 18.804688 1.6875 L 19.363281 1.125 L 23.039062 4.804688 Z M 22.480469 5.363281"/>
    <path d="M7.210938 14.957031C7.289062 15.039062 7.371094 15.078125 7.492188 15.078125 7.570312 15.078125 7.691406 15.039062 7.769531 14.957031L17.363281 5.363281C17.523438 5.203125 17.523438 4.964844 17.363281 4.804688 17.203125 4.644531 16.964844 4.644531 16.804688 4.804688L7.210938 14.398438C7.050781 14.558594 7.050781 14.796875 7.210938 14.957031zM9.167969 16.917969C9.25 16.996094 9.328125 17.035156 9.449219 17.035156 9.570312 17.035156 9.648438 16.996094 9.730469 16.917969L19.324219 7.324219C19.484375 7.164062 19.484375 6.921875 19.324219 6.761719 19.164062 6.601562 18.921875 6.601562 18.761719 6.761719L9.167969 16.355469C9.007812 16.515625 9.007812 16.757812 9.167969 16.917969zM9.167969 16.917969"/>
</svg>

<svg xmlns="http://www.w3.org/2000/svg" width="32" height="32" viewBox="0 0 24 24">
    <path d="M23.879 4.484L19.645.29a.437.437 0 0 0-.602 0l-.84.836a.391.391 0 0 0-.558 0L2.973 15.835a.388.388 0 0 0-.118.306l-.003.015.082.723a4.684 4.684 0 0 1-1.36 3.754.361.361 0 0 0-.12.281c0 .11.034.188.1.258L.138 22.594c-.121.078-.16.238-.121.36.039.12.16.237.277.28l1.68.559c.043.039.082.039.12.039.122 0 .239-.039.282-.121l.86-.86.019.024c.078.078.16.117.277.117.082 0 .203-.039.281-.117l.16-.203a4.656 4.656 0 0 1 3.36-1.399h.543c.05.028.105.04.176.04.117 0 .199-.079.277-.118L23 6.485a.39.39 0 0 0 0-.563l.879-.879a.385.385 0 0 0 0-.559zm-5.957-2.52l4.258 4.22L8.05 20.316l-4.238-4.238zM2.692 22.314l-.676.68-.84-.278.957-.961zm.84-.278l-1.157-1.16a5.369 5.369 0 0 0 1.36-3.719l3.355 3.36c-1.32.039-2.598.597-3.559 1.52zM22.48 5.363l-3.675-3.676.558-.562 3.676 3.68zm0 0"/>
    <path d="M7.21 14.957c.08.082.161.121.282.121.078 0 .2-.039.278-.121l9.593-9.594a.385.385 0 0 0 0-.558.385.385 0 0 0-.558 0L7.21 14.398a.385.385 0 0 0 0 .559zm0 0M9.168 16.918c.082.078.16.117.281.117.121 0 .2-.039.281-.117l9.594-9.594a.39.39 0 0 0 0-.562.39.39 0 0 0-.562 0l-9.594 9.593a.39.39 0 0 0 0 .563zm0 0"/>
</svg>
